src/assets/skills/cordova.svg

<svg height="100pt" viewBox="0 0 100 100" width="100pt" xmlns="http://www.w3.org/2000/svg"><path d="m0 0h100v100h-100z"/><path d="m66.363 21.362h-32.726l-13.637 21.82 5.455 35.456h9.714l-.682-8.183h4.772l.682 8.183h20.114l.683-8.183h4.772l-.683 8.183h9.715l5.458-35.456zm0 43.638h-32.726l-2.728-21.818 5.455-10.911h8.766l-.585 4.09h10.91l-.585-4.09h8.766l5.455 10.911zm-7.501-17.387c.752 0 1.364 2.271 1.364 5.072s-.61 5.072-1.364 5.072c-.753 0-1.363-2.271-1.363-5.072 0-2.799.61-5.072 1.363-5.072zm-17.216.424c.752 0 1.363 2.271 1.363 5.072s-.61 5.072-1.363 5.072c-.754 0-1.363-2.271-1.363-5.072s.609-5.072 1.363-5.072z" fill="#fff"/></svg>

<?xml version="1.0" encoding="UTF-8" standalone="no"?><!-- Generator: Gravit.io --><svg xmlns="http://www.w3.org/2000/svg" xmlns:xlink="http://www.w3.org/1999/xlink" style="isolation:isolate" viewBox="0 0 100 100" width="100pt" height="100pt"><rect x="0" y="0" width="100" height="100" transform="matrix(1,0,0,1,0,0)" fill="rgb(0,0,0)"/><path d=" M 66.363 21.362 L 33.637 21.362 L 20 43.182 L 25.455 78.638 L 35.169 78.638 L 34.487 70.455 L 39.259 70.455 L 39.941 78.638 L 60.055 78.638 L 60.738 70.455 L 65.51 70.455 L 64.827 78.638 L 74.542 78.638 L 80 43.182 L 66.363 21.362 Z  M 66.363 65 L 33.637 65 L 30.909 43.182 L 36.364 32.271 L 45.13 32.271 L 44.545 36.361 L 55.455 36.361 L 54.87 32.271 L 63.636 32.271 L 69.091 43.182 L 66.363 65 Z  M 58.862 47.613 C 59.614 47.613 60.226 49.884 60.226 52.685 C 60.226 55.486 59.616 57.757 58.862 57.757 C 58.109 57.757 57.499 55.486 57.499 52.685 C 57.499 49.886 58.109 47.613 58.862 47.613 Z  M 41.646 48.037 C 42.398 48.037 43.009 50.308 43.009 53.109 C 43.009 55.91 42.399 58.181 41.646 58.181 C 40.892 58.181 40.283 55.91 40.283 53.109 C 40.283 50.308 40.892 48.037 41.646 48.037 Z " fill="rgb(255,255,255)"/></svg>
